X:709
T:McEwan's Barn
T:I Bhi Ada
S:Fergie MacDonald
Z:Nigel Gatherer
M:4/4
L:1/8
K:D
AB/c/ | d2 d2  B<A A2 | f2 f2  e>dB<d  | 
        d2 d2  B<A A2 | B>AA>B d2     :| 
A2    | d2 e<f d<d d2 | e>ee>f e>dB<A  |
        d2 e<f d<d d2 | B>AA>B d2     :|
<end>
<start>
